svgs/duotone/diagram-venn.svg

<svg xmlns="http://www.w3.org/2000/svg" viewBox="0 0 640 512"><!-- Font Awesome Pro 6.0.0-alpha2 by @fontawesome - https://fontawesome.com License - https://fontawesome.com/license (Commercial License) --><defs><style>.fa-secondary{opacity:.4}</style></defs><path d="M256 256C256 203.934 281.375 158.051 320 128.814C301.336 114.688 279.863 104.107 256.119 99.248C216.5 139.652 192 194.941 192 256S216.502 372.346 256.121 412.752C279.865 407.895 301.336 397.312 320 383.186C281.375 353.949 256 308.066 256 256ZM416 32C381.594 32 349.129 39.984 320 53.846C343.832 65.186 365.389 80.467 383.678 99.07C423.42 139.48 448 194.84 448 256C448 318.977 421.697 375.545 379.828 416.207C372.029 423.781 363.875 430.988 355.031 437.346C354.623 437.641 354.268 437.998 353.857 438.291C353.861 438.291 353.863 438.293 353.867 438.293C343.225 445.838 331.898 452.492 320 458.154C349.129 472.016 381.594 480 416 480C539.713 480 640 379.711 640 256S539.713 32 416 32Z" class="fa-secondary"/><path d="M224 32C100.289 32 0 132.289 0 256S100.289 480 224 480C347.713 480 448 379.711 448 256S347.713 32 224 32ZM257.617 272H382.383C380.678 288.857 376.984 305.09 370.439 320H269.561C274.621 331.533 281.303 342.074 288.814 352H351.186C321.949 390.625 276.066 416 224 416C135.775 416 64 344.225 64 256S135.775 96 224 96C276.066 96 321.949 121.375 351.186 160H288.814C281.303 169.926 274.621 180.467 269.561 192H370.439C376.984 206.91 380.678 223.143 382.383 240H257.617C257.076 245.338 256 250.521 256 256S257.076 266.662 257.617 272Z" class="fa-primary"/></svg>

<svg xmlns="http://www.w3.org/2000/svg" viewBox="0 0 640 512"><!--! Font Awesome Pro 6.0.0-alpha3 by @fontawesome - https://fontawesome.com License - https://fontawesome.com/license (Commercial License) --><defs><style>.fa-secondary{opacity:.4}</style></defs><path class="fa-primary" d="M224 32C100.3 32 0 132.3 0 256s100.3 224 224 224c123.7 0 224-100.3 224-224S347.7 32 224 32zM257.6 272h124.8c-1.705 16.86-5.398 33.09-11.94 48H269.6c5.061 11.53 11.74 22.07 19.25 32h62.37C321.9 390.6 276.1 416 224 416c-88.22 0-160-71.78-160-160s71.78-160 160-160c52.07 0 97.95 25.38 127.2 64H288.8C281.3 169.9 274.6 180.5 269.6 192h100.9c6.545 14.91 10.24 31.14 11.94 48H257.6C257.1 245.3 256 250.5 256 256S257.1 266.7 257.6 272z"/><path class="fa-secondary" d="M256 256c0-52.07 25.38-97.95 64-127.2C301.3 114.7 279.9 104.1 256.1 99.25C216.5 139.7 192 194.9 192 256s24.5 116.3 64.12 156.8C279.9 407.9 301.3 397.3 320 383.2C281.4 353.9 256 308.1 256 256zM416 32c-34.41 0-66.87 7.999-96 21.86c23.83 11.34 45.39 26.61 63.68 45.21C423.4 139.5 448 194.8 448 256c0 62.98-26.3 119.5-68.17 160.2c-7.799 7.574-15.95 14.78-24.8 21.14c-.4082 .2949-.7588 .6533-1.169 .9463c.0039 0-.0039 0 0 0C343.2 445.8 331.9 452.5 320 458.1C349.1 472 381.6 480 416 480c123.7 0 224-100.3 224-224S539.7 32 416 32z"/></svg>
